svg/magic_staff.svg

<svg xmlns="http://www.w3.org/2000/svg" viewBox="0 0 24 24"><path d="M17.5 9a2.5 2.5 0 0 1 0-5 2.5 2.5 0 0 1 0 5m-3.07-.85L2 20.59 3.41 22 15.85 9.57c-.6-.33-1.09-.82-1.42-1.42M13 5l.63-1.37L15 3l-1.37-.63L13 1l-.62 1.37L11 3l1.38.63zm8 0 .63-1.37L23 3l-1.37-.63L21 1l-.62 1.37L19 3l1.38.63zm0 4-.62 1.37L19 11l1.38.63L21 13l.63-1.37L23 11l-1.37-.63z"/></svg>

<svg xmlns="http://www.w3.org/2000/svg" id="mdi-magic-staff" viewBox="0 0 24 24"><path d="M17.5 9C16.12 9 15 7.88 15 6.5S16.12 4 17.5 4 20 5.12 20 6.5 18.88 9 17.5 9M14.43 8.15L2 20.59L3.41 22L15.85 9.57C15.25 9.24 14.76 8.75 14.43 8.15M13 5L13.63 3.63L15 3L13.63 2.37L13 1L12.38 2.37L11 3L12.38 3.63L13 5M21 5L21.63 3.63L23 3L21.63 2.37L21 1L20.38 2.37L19 3L20.38 3.63L21 5M21 9L20.38 10.37L19 11L20.38 11.63L21 13L21.63 11.63L23 11L21.63 10.37L21 9Z" /></svg>
